assets/images/artomatica-logo-plain.svg

<svg width="184.72mm" height="30.521mm" version="1.1" viewBox="0 0 184.72 30.521" xmlns="http://www.w3.org/2000/svg">
 <g transform="translate(-6.8802 -24.394)">
  <g transform="matrix(2.1159 0 0 -2.1159 -47.984 220.74)">
   <g transform="matrix(.6819 0 0 .6819 35.076 79.427)">
    <path d="m0 0-10.998 10.998 8.61 8.609h-2.416l-8.61-8.609 11.002-11.002h2.408z" fill="#333"/>
   </g>
   <g transform="matrix(.6819 0 0 .6819 46.625 79.427)">
    <path d="m0 0 10.998 10.998-8.609 8.609h2.416l8.609-8.609-11.002-11.002h-2.408z" fill="#333"/>
   </g>
   <g fill="#064273">
    <g transform="matrix(.6819 0 0 .6819 37.161 92.08)">
     <path d="m0 0-6.72-6.72h2.416l4.304 4.304 4.305-4.304 1.419-1.419v2.416z" fill="#064273"/>
    </g>
    <g transform="matrix(.6819 0 0 .6819 35.293 85.099)">
     <path d="m0 0h-2.562l11.025-9.865v2.292z" fill="#064273"/>
    </g>
    <g transform="matrix(.6819 0 0 .6819 44.967 92.08)">
     <path d="m0 0 6.72-6.72h-2.416l-4.304 4.304-4.305-4.304-1.419-1.419v2.416z" fill="#064273"/>
    </g>
    <g transform="matrix(.6819 0 0 .6819 46.835 85.099)">
     <path d="m0 0h2.562l-11.025-9.865v2.292z" fill="#064273"/>
    </g>
   </g>
   <text transform="scale(1,-1)" x="57.701454" y="-80.612793" fill="#333333" font-family="overpass" font-size="10.277px" letter-spacing="0px" stroke-width=".25692" word-spacing="0px" style="line-height:1.25" xml:space="preserve"><tspan x="57.701454" y="-80.612793" fill="#333333" font-family="Bahnschrift" font-size="9.3367px" stroke-width=".25692">ARTOMATICA</tspan></text>
  </g>
 </g>
</svg>

<?xml version="1.0" encoding="UTF-8" standalone="no"?>
<svg
   xmlns:dc="http://purl.org/dc/elements/1.1/"
   xmlns:cc="http://creativecommons.org/ns#"
   xmlns:rdf="http://www.w3.org/1999/02/22-rdf-syntax-ns#"
   xmlns:svg="http://www.w3.org/2000/svg"
   xmlns="http://www.w3.org/2000/svg"
   width="184.72127mm"
   height="30.520998mm"
   viewBox="0 0 184.72127 30.520998"
   version="1.1"
   id="svg8">
  <defs
     id="defs2" />
  <metadata
     id="metadata5">
    <rdf:RDF>
      <cc:Work
         rdf:about="">
        <dc:format>image/svg+xml</dc:format>
        <dc:type
           rdf:resource="http://purl.org/dc/dcmitype/StillImage" />
        <dc:title></dc:title>
      </cc:Work>
    </rdf:RDF>
  </metadata>
  <g
     transform="translate(-6.8802218,-24.394248)"
     id="layer1">
    <g
       transform="matrix(2.1159054,0,0,-2.1159054,-47.983635,220.74383)"
       id="g823">
      <g
         transform="matrix(0.68189616,0,0,0.68189616,35.076213,79.427019)"
         id="g829-2">
        <path
           id="path831-7"
           style="fill:#333333;fill-opacity:1;fill-rule:nonzero;stroke:none"
           d="m 0,0 -10.998,10.998 8.61,8.609 h -2.416 l -8.61,-8.609 11.002,-11.002 h 2.408 z" />
      </g>
      <g
         transform="matrix(0.68189616,0,0,0.68189616,46.624875,79.427019)"
         id="g833-2">
        <path
           id="path835-6"
           style="fill:#333333;fill-opacity:1;fill-rule:nonzero;stroke:none"
           d="M 0,0 10.998,10.998 2.389,19.607 H 4.805 L 13.414,10.998 2.412,-0.004 H 0.004 Z" />
      </g>
      <g
         transform="matrix(0.68189616,0,0,0.68189616,37.161246,92.080077)"
         id="g837-5"
         style="fill:#064273;fill-opacity:1">
        <path
           id="path839-5"
           style="fill:#064273;fill-opacity:1;fill-rule:nonzero;stroke:none"
           d="m 0,0 -6.72,-6.72 h 2.416 L 0,-2.416 4.305,-6.72 5.724,-8.139 v 2.416 z" />
      </g>
      <g
         transform="matrix(0.68189616,0,0,0.68189616,35.292987,85.099305)"
         id="g841-9"
         style="fill:#064273;fill-opacity:1">
        <path
           id="path843-3"
           style="fill:#064273;fill-opacity:1;fill-rule:nonzero;stroke:none"
           d="M 0,0 H -2.562 L 8.463,-9.865 v 2.292 z" />
      </g>
      <g
         transform="matrix(0.68189616,0,0,0.68189616,44.96739,92.080077)"
         id="g845-9"
         style="fill:#064273;fill-opacity:1">
        <path
           id="path847-8"
           style="fill:#064273;fill-opacity:1;fill-rule:nonzero;stroke:none"
           d="M 0,0 6.72,-6.72 H 4.304 L 0,-2.416 -4.305,-6.72 -5.724,-8.139 v 2.416 z" />
      </g>
      <g
         transform="matrix(0.68189616,0,0,0.68189616,46.835308,85.099305)"
         id="g849-9"
         style="fill:#064273;fill-opacity:1">
        <path
           id="path851-8"
           style="fill:#064273;fill-opacity:1;fill-rule:nonzero;stroke:none"
           d="M 0,0 H 2.562 L -8.463,-9.865 v 2.292 z" />
      </g>
      <text
         xml:space="preserve"
         style="font-style:normal;font-variant:normal;font-weight:normal;font-stretch:normal;font-size:10.27686024px;line-height:1.25;font-family:overpass;-inkscape-font-specification:overpass;letter-spacing:0px;word-spacing:0px;fill:#333333;fill-opacity:1;stroke:none;stroke-width:0.2569215"
         x="58.951912"
         y="-83.863983"
         id="text870-4"
         transform="scale(1,-1)"><tspan
           id="tspan868-6"
           x="58.951912"
           y="-83.863983"
           style="font-style:normal;font-variant:normal;font-weight:normal;font-stretch:normal;font-size:9.33669186px;font-family:Bahnschrift;-inkscape-font-specification:Bahnschrift;fill:#333333;fill-opacity:1;stroke-width:0.2569215">ARTOMATICA</tspan></text>
    </g>
  </g>
</svg>
